X: 23171
T: Le Poisson Qui Tombe
R: reel
M: 4/4
K: Adorian
|:aged gedc|GAAG A2GA|aged gede|FGGF GEG2|
aged gedc|GAAc e2ce|g2ge dged|1 cAAG A2eg:|2 cAAG A2ce||
|:g2ga g2eg|a2ab a2g2|e2de gedc|A2GE G2cB|
A2AG A2GA|cG (3cde d2ce|g2ge dged|cAAG A4:|

